X:5
T:Big Donald
R:reel
C:Paul S. Cranford
O:Cape Breton Island
S:http://www.cranfordpub.com
D:currently unrecorded
B:currently unpublished in book form
Z:psc, (re-formatted,updated 9/17/04)
N:Big Donald was the nickname of the late Donald MacLellan
H:Donald was born in Cleveland, Inverness County           copyrights Cranford Publications, SOCAN
L:1/8
Q:333
M:C|
K:A
F|EA,CE AcBA|FAEC DB,B,F|EA,CE AEFD|ECB,D CA,A,F|
EA,CE AcBA|FAEC DB,B,d|cABG AEFD|ECB,.D CA,A,||
||f|eAce aefd|ecAc BFFf|eAce aefd|ecBd cAAf|
eAce aefd|ecAc BFFd|cABG AEFD|ECB,.D CA,A,|]
